X: 8860
T: Cullen Bay
R: reel
M: 4/4
K: Amajor
M:5/4
|:A>B cA Bc/B/ A4|c>d ec de/f/ e4|fa ec de/>d/ c4|A>B cA Bc/B/ A4:|
|:ae ec/e/ fe/c/ e4|ae ec/e/ fe/c/ B4|ae ec/e/ fe/c/ e4|A>B cA Bc/B/ A4:|
|:c>A AB/c/ dc/B/ c4|ec cd/e/ de/f/ e4|fa ec de/d/ c4|A>B cA Bc/B/ A4:|
|:ec/e/ ae fe/c/ e4|cA AB/c/ ed/c/ B4|ec/e/ fa f/e/d/f/ e4|A>B cA Bc/B/ A4:|

